X: 113
T:Wild Irishman, The
M:C|
L:1/8
R:Reel
K:D
d2fd gefe|dfed cdec|d2fd gefe|fgfe dcBc|!
d2fd gefe|dfed cdeg|~f3d ~g3e|cdec dcdf|]!
edcB A2 (3cBA|eA~A2 eAfA|edcB ABce|fgfe dcdf|!
edcB ABcd|eA~A2 eAfA|edcB ABce|fgfe dABc|]!
